X:0718
T:Dutchess of Montrose's Reel.
M:C
L:1/8
Q:1/2=104
I: :: :|
N:presumably a da capo?
Z:Jack Campin * www.campin.me.uk * 2009
K:G
  GG/G/ BG   dGBG  |GG/G/ BG  d3   B|(3cdc   e>c (3BcB   d>B|A>Bc>A GF````ED |
  GG/G/ BG   dGBG  |GG/G/ BG  d3   B|  cc/c/ e>c   BB/B/ d>B|cA`GF  G2    G2:|
(3gag   b2 (3efe g2|d>e```d>B A<F D2|(3gag   bg  (3efe   ge |d>Bc>A BB/B/ B2:|
<end>
<start>
